public/images/chevronDown.svg

<svg fill="none" height="22" viewBox="0 0 22 22" width="22" xmlns="http://www.w3.org/2000/svg"><path d="m9.74415 14.7427c.70595.6644 1.80705.6644 2.51305 0l7.1634-6.74201c.3686-.34697.3862-.92711.0392-1.29577-.3469-.36866-.9271-.38624-1.2957-.03926l-7.1634 6.74204-7.16347-6.74204c-.36866-.34697-.94879-.32939-1.29576.03926-.34698.36866-.3294.9488.03926 1.29577z" fill="#000"/></svg>

<svg width="22" height="22" viewBox="0 0 22 22" fill="none" xmlns="http://www.w3.org/2000/svg">
<path d="M9.74415 14.7427C10.4501 15.4071 11.5512 15.4071 12.2572 14.7427L19.4206 8.00069C19.7892 7.65372 19.8068 7.07358 19.4598 6.70492C19.1129 6.33626 18.5327 6.31868 18.1641 6.66566L11.0007 13.4077L3.83723 6.66566C3.46857 6.31869 2.88844 6.33627 2.54147 6.70492C2.19449 7.07358 2.21207 7.65372 2.58073 8.00069L9.74415 14.7427Z" fill="black"/>
</svg>
